src/assets/svg/linkedin.svg

<?xml version="1.0" encoding="UTF-8"?>
<svg width="72px" height="72px" viewBox="0 0 72 72" version="1.1" xmlns="http://www.w3.org/2000/svg" xmlns:xlink="http://www.w3.org/1999/xlink">
    <title>linkedin</title>
    <g id="Page-1" stroke="none" stroke-width="1" fill="none" fill-rule="evenodd">
        <g id="linkedin" fill="#007EBB" fill-rule="nonzero">
            <path d="M64,0 C68.418278,0 72,3.581722 72,8 L72,64 C72,68.418278 68.418278,72 64,72 L8,72 C3.581722,72 0,68.418278 0,64 L0,8 C0,3.581722 3.581722,0 8,0 Z M49.3825521,26.2742151 C42.0260417,26.2742151 38.9300781,32.0029283 38.9300781,32.0029283 L38.9300781,27.3333333 L28.6333333,27.3333333 L28.6333333,62 L38.9300781,62 L38.9300781,43.8021149 C38.9300781,38.9261103 41.1746094,36.0245323 45.4707031,36.0245323 C49.4197917,36.0245323 51.315625,38.8127542 51.315625,43.8021149 L51.315625,62 L62,62 L62,40.051212 C62,30.7644705 56.7356771,26.2742151 49.3825521,26.2742151 Z M21.769401,27.3333333 L11.0325521,27.3333333 L11.0325521,62 L21.769401,62 L21.769401,27.3333333 Z M16.349349,10 C12.8420573,10 10,12.8643566 10,16.3970067 C10,19.9296567 12.8420573,22.7940133 16.349349,22.7940133 C19.8566406,22.7940133 22.6970052,19.9296567 22.6970052,16.3970067 C22.6970052,12.8643566 19.8566406,10 16.349349,10 Z" id="Combined-Shape"></path>
        </g>
    </g>
</svg>

<svg width="1024" height="1024" viewBox="0 0 72 72"
    xmlns="http://www.w3.org/2000/svg">
    <path d="M64 0a8 8 0 0 1 8 8v56a8 8 0 0 1-8 8H8a8 8 0 0 1-8-8V8a8 8 0 0 1 8-8ZM49.383 26.274c-7.357 0-10.453 5.729-10.453 5.729v-4.67H28.633V62H38.93V43.802c0-4.876 2.245-7.777 6.54-7.777 3.95 0 5.846 2.788 5.846 7.777V62H62V40.051c0-9.287-5.264-13.777-12.617-13.777Zm-27.614 1.06H11.033V62h10.736V27.333ZM16.35 10C12.842 10 10 12.864 10 16.397c0 3.533 2.842 6.397 6.35 6.397 3.507 0 6.347-2.864 6.347-6.397 0-3.533-2.84-6.397-6.348-6.397Z"/>
</svg>
